X: 39769
T: Thank God We're Surrounded By Water
R: jig
M: 6/8
K: Gmajor
|:F|DGG GFG|ABc d2e|fef ded|cAG FEF|
DGG GFG|ABc d2e|fed cAF|G3 G2:|
d|gfg def|gfg a2g|fef ded|cAG FGA|
gfg def|gfg a2g|fed cAF|G3 G2d|
gfg def|gfg a2g|fef ded|cAG FGA|
~B3 BAG|ABc d2e|fed cAF|G3 G2||

